X:16
T:Mrs. McPherson's Reel - Gibston
R:reel
C:William Marshall
S:1822 Collection p28
B:Athole
Z:Paul Stewart Cranford (P.S.C.), <http://www.cranfordpub.com>
L:1/8
Q:333
M:C|
K:CAeo
G|cded c2 Gc|BdGB FBDB,|cded c2 eg|dBfd c/c/c cG|
cded c2 Gc|BdGB FBDB,|gfed edcB|GBFD C/C/C C||
||G|cdeg cgeg|Bcde fbdB|cdef gcec|dBfd c/c/c cG|
cdeg cgeg|Bcde fbdB|gfed edcB|GBFD C/C/C C|]

